X: 972
T: The Spalpeen Fanach
C: anon.
O: Ireland
B: Francis O'Neill: "The Dance Music of Ireland" (1907) no. 972
R: Long dance, set dance
Z: Transcribed by Frank Nordberg - http://www.musicaviva.com
F: http://www.musicaviva.com/abc/tunes/ireland/oneill-1001/oneill-1001-097
2.abc
M: C
L: 1/8
K: G
(gf)|e(fed)B2A2|GABGE2(EF)|G2(GF) GABc|d(edc)B2(gf)|efedB2A2|GABGE2G2|FGA
(F DE)F(A|G3)G2:|
|:(GA)|Bde(fg2)fg|ag(fe)d2(Bd)|ede(f gf)ed|e2f2g2(fg)|efe(d Bc)BA|GABG E(
DEG)FGA(F DE)F(A|G3)G2:|
W:
W:
W: From Musica Viva - http://www.musicaviva.com
W: the Internet center for free sheet music downloads.


